X: 4
T: Burnt Leg, The
Z: Weejie
S: https://thesession.org/tunes/4009#setting16846
R: reel
M: 4/4
L: 1/8
K: Emin
Beef "tr"e2 d<B|defd eBAd|Beef "tr"e2 d<B|dBAF E/E/E E2:|
F2 "tr"F>E DEFA|B/B/B "tr"B>A Bdef|dBAF DEFA|BdAF E/E/E E2:|
B<e e2 "tr"e>dBe|d<fB<d DEFD|E<e "tr"e<d B<e"tr"e<d|"tr"B>AdF E/E/E E2:|
B<d "tr"F<E D<d "tr"F>A|B2 (3)dBA Ba "tr"f>e|d>fe>d "tr"B>AF<d|
B>e"tr"e>d "tr"e>dB>e|d>e (3)fed A>FD>F|E>e "tr"e>d b>a"tr"f>e|
F>d D>d F>d D>d|B/B/B "tr"B>A b>a"tr"f>e|d>f"tr"e>d B>d (3)AFD|
